X: 30383
T: Old Road To Charlestown, The
R: reel
M: 4/4
K: Cmajor
|:D|EG .G/.G/.G cBcG|AG .G/.G/.G cAGF|(E/F/G) cd efec|decd .A2 GF|
EG .G/.G/.G cBcG|AG .G/.G/.G cdef|~g3 e dc (B/c/d)|cAGE C3:|
|:e|fa ~a2 gecd|.e/.f/.e ec decd|fa ~a2 gece|fgef d3 e|
fa ~a2 gecd|efec deca|~g3 e dc (B/c/d)|cAGE C3:|

